dist/img/vector/space-news-logo-inverted.svg

<svg xmlns="http://www.w3.org/2000/svg" width="216" height="129" viewBox="0, 0, 216, 129"><path fill="none" d="M0 0h216v129H0z"/><path d="M3.802 25.022c0 3.373.574 15.214 14.21 15.214h6.457c3.157 0 3.803 1.076 3.803 3.157v1.15c0 2.15-1.148 2.94-4.234 2.94-6.675 0-15.717-.502-18.587-.79V57.53c7.176 2.44 8.754 2.44 22.174 2.44 7.104 0 14.568-2.727 14.568-16.074v-2.368c0-5.74-2.512-15.214-13.42-15.214H22.03c-3.876 0-4.306-1.22-4.306-3.445v-.79c0-3.014 1.435-3.157 5.31-3.157 4.737 0 12.63.215 17.223.717V8.804c-5.31-1.937-11.642-3.03-22.246-2.368-8.036.502-14.208 4.808-14.208 14.21zM47.074 59.396h13.922V40.164c.36.215 6.602 1.22 9.473 1.435 6.6.502 16.217-.862 16.217-17.726 0-15.213-8.898-17.007-16.218-17.007H47.073zM60.996 29.83V18.707h8.038c2.51 0 3.66 1.794 3.66 5.382 0 3.66-.933 5.74-3.66 5.74zM83.745 59.396h14.28l3.015-9.185h14.137l3.085 9.186h14.28l-15.93-52.53h-16.434zm20.452-21.026l4.378-14.065 3.803 14.065zM133.045 32.988c0 17.653 4.88 26.624 18.156 26.84 10.622.214 14.497-.432 18.946-2.298V46.694s-7.032.646-14.567.646c-7.25 0-8.613-2.44-8.613-14.21 0-14.638 2.512-14.35 8.54-14.35 7.39 0 14.568 1.22 14.64 1.22V9.162c-6.172-2.296-8.612-2.87-18.946-2.87-14.28 0-18.155 9.903-18.155 26.695zM174.38 47.843c0 10.98 9.423 11.912 14.066 11.77 0 0 15.357-.217 22.748-1.22V46.765H192.75c-2.08 0-4.448.072-4.448-3.73v-3.16l19.304-.645V27.678l-19.304-.79v-3.156c0-1.937 0-4.018 3.732-4.018h19.16V8.015c-8.396-1.148-23.466-1.148-23.466-1.148-5.074 0-13.348 1.38-13.348 12.2z" fill="#FD0000"/><path d="M4.418 122.318H18.41v-26.12l15.07 26.12h13.923v-52.53H33.48v26.84l-14.997-26.84H4.418zM55.57 110.764c0 10.98 9.423 11.913 14.066 11.77 0 0 15.357-.216 22.75-1.22v-11.626H73.94c-2.08 0-4.45.072-4.45-3.732V102.8l19.305-.647V90.6l-19.304-.79v-3.158c0-1.937 0-4.018 3.73-4.018h19.162V70.936c-8.396-1.148-23.466-1.148-23.466-1.148-5.075 0-13.35 1.38-13.35 12.2zM98.113 69.788l14.854 52.53h16.793l4.234-17.15 4.808 17.15h16.792l12.845-52.53H153.8l-6.53 35.45-7.32-24.542 2.655-10.908h-14.64l-6.53 35.45-8.683-35.45zM174.24 87.944c0 3.373.573 15.213 14.208 15.213h6.458c3.158 0 3.804 1.077 3.804 3.158v1.148c0 2.153-1.148 2.942-4.234 2.942-6.674 0-15.716-.502-18.586-.79v10.837c7.176 2.44 8.754 2.44 22.174 2.44 7.104 0 14.568-2.727 14.568-16.075v-2.368c0-5.742-2.512-15.214-13.42-15.214h-6.745c-3.876 0-4.306-1.22-4.306-3.445v-.788c0-3.014 1.436-3.158 5.31-3.158 4.738 0 12.63.215 17.224.718V71.726c-5.31-1.938-11.642-3.03-22.246-2.368-8.037.502-14.21 4.808-14.21 14.208z" fill="#FFF"/></svg>

<?xml version="1.0" encoding="UTF-8"?>
<!DOCTYPE svg PUBLIC "-//W3C//DTD SVG 1.1//EN" "http://www.w3.org/Graphics/SVG/1.1/DTD/svg11.dtd">
<svg version="1.1" xmlns="http://www.w3.org/2000/svg" xmlns:xlink="http://www.w3.org/1999/xlink" x="0" y="0" width="216" height="129" viewBox="0, 0, 216, 129">
  <g id="Background">
    <rect x="0" y="0" width="216" height="129" fill="#000000" fill-opacity="0"/>
  </g>
  <g id="Layer_1">
    <path d="M3.802,25.022 C3.802,28.395 4.376,40.236 18.011,40.236 L24.469,40.236 C27.627,40.236 28.273,41.312 28.273,43.393 L28.273,44.542 C28.273,46.694 27.125,47.484 24.039,47.484 C17.365,47.484 8.323,46.981 5.453,46.694 L5.453,57.53 C12.629,59.97 14.207,59.97 27.627,59.97 C34.731,59.97 42.195,57.243 42.195,43.896 L42.195,41.528 C42.195,35.787 39.683,26.314 28.775,26.314 L22.03,26.314 C18.154,26.314 17.724,25.094 17.724,22.869 L17.724,22.08 C17.724,19.066 19.159,18.923 23.034,18.923 C27.771,18.923 35.664,19.138 40.257,19.64 L40.257,8.804 C34.947,6.867 28.615,5.773 18.011,6.436 C9.974,6.938 3.802,11.244 3.802,20.645 z" fill="#FD0000"/>
    <path d="M47.074,59.396 L60.996,59.396 L60.996,40.164 C61.355,40.379 67.598,41.384 70.469,41.599 C77.071,42.102 86.687,40.738 86.687,23.874 C86.687,8.661 77.789,6.867 70.469,6.867 L47.074,6.867 z M60.996,29.83 L60.996,18.707 L69.034,18.707 C71.545,18.707 72.694,20.501 72.694,24.089 C72.694,27.749 71.761,29.83 69.034,29.83 z" fill="#FD0000"/>
    <path d="M83.745,59.396 L98.026,59.396 L101.04,50.211 L115.177,50.211 L118.262,59.396 L132.543,59.396 L116.612,6.867 L100.178,6.867 z M104.197,38.37 L108.575,24.305 L112.378,38.37 z" fill="#FD0000"/>
    <path d="M133.045,32.988 C133.045,50.641 137.925,59.612 151.201,59.827 C161.822,60.042 165.697,59.396 170.146,57.53 L170.146,46.694 C170.146,46.694 163.114,47.34 155.579,47.34 C148.331,47.34 146.967,44.9 146.967,33.131 C146.967,18.492 149.479,18.779 155.507,18.779 C162.898,18.779 170.075,19.999 170.146,19.999 L170.146,9.163 C163.975,6.867 161.535,6.292 151.201,6.292 C136.921,6.292 133.045,16.196 133.045,32.988 z" fill="#FD0000"/>
    <path d="M174.38,47.843 C174.38,58.822 183.803,59.755 188.446,59.612 C188.446,59.612 203.803,59.396 211.194,58.392 L211.194,46.766 L192.751,46.766 C190.67,46.766 188.302,46.838 188.302,43.035 L188.302,39.877 L207.606,39.231 L207.606,27.677 L188.302,26.888 L188.302,23.731 C188.302,21.793 188.302,19.712 192.034,19.712 L211.194,19.712 L211.194,8.015 C202.798,6.867 187.728,6.867 187.728,6.867 C182.654,6.867 174.38,8.246 174.38,19.066 z" fill="#FD0000"/>
    <path d="M4.418,122.318 L18.411,122.318 L18.411,96.197 L33.481,122.318 L47.403,122.318 L47.403,69.788 L33.481,69.788 L33.481,96.627 L18.483,69.788 L4.418,69.788 z" fill="#FFFFFF"/>
    <path d="M55.571,110.764 C55.571,121.744 64.993,122.677 69.636,122.533 C69.636,122.533 84.993,122.318 92.385,121.313 L92.385,109.688 L73.942,109.688 C71.861,109.688 69.493,109.76 69.493,105.956 L69.493,102.799 L88.797,102.153 L88.797,90.599 L69.493,89.81 L69.493,86.652 C69.493,84.715 69.493,82.634 73.224,82.634 L92.385,82.634 L92.385,70.936 C83.989,69.788 68.919,69.788 68.919,69.788 C63.845,69.788 55.571,71.168 55.571,81.988 z" fill="#FFFFFF"/>
    <path d="M98.113,69.788 L112.967,122.318 L129.76,122.318 L133.994,105.167 L138.802,122.318 L155.594,122.318 L168.439,69.788 L153.8,69.788 L147.27,105.239 L139.95,80.696 L142.605,69.788 L127.966,69.788 L121.435,105.239 L112.752,69.788 z" fill="#FFFFFF"/>
    <path d="M174.239,87.944 C174.239,91.317 174.813,103.157 188.448,103.157 L194.906,103.157 C198.064,103.157 198.71,104.234 198.71,106.315 L198.71,107.463 C198.71,109.616 197.562,110.405 194.476,110.405 C187.802,110.405 178.76,109.903 175.89,109.616 L175.89,120.452 C183.066,122.892 184.644,122.892 198.064,122.892 C205.168,122.892 212.632,120.165 212.632,106.817 L212.632,104.449 C212.632,98.708 210.12,89.236 199.212,89.236 L192.467,89.236 C188.591,89.236 188.161,88.016 188.161,85.791 L188.161,85.002 C188.161,81.988 189.596,81.844 193.471,81.844 C198.208,81.844 206.101,82.059 210.694,82.562 L210.694,71.726 C205.384,69.788 199.052,68.695 188.448,69.358 C180.411,69.86 174.239,74.166 174.239,83.566 z" fill="#FFFFFF"/>
  </g>
</svg>
